X: 1
T: Osburn Place Assembly  (G)
R: jig
Z: 2011 John Chambers <jc:trillian.mit.edu>
S: printed MS of unknown origin
M: 6/8
L: 1/8
K: G
"G"\
|:"G"G3 BGB | "G"dgd BGB | "D"D3 FDF | "D7"AcA FDF \
| "G"G3 BGB | "G"dgd BGB | "A7"ege ^cAc | "D"d3- d3 :|
"A"\
|:"D"D3 FDF | "D7"AcA FDF | "G"G3 BGB | dgd BGB \
| "C"ege "D7"cAc | "G"dgd BGB | "D7"AcA FDF | "G"G3 G,3 :|
